X:916
T:Lord Dalhousie
S:Various
Z:Nigel Gatherer
M:4/4
L:1/8
K:D
d2 fd A2 fd | egfe dB B2 | d2 fd egfe | dBAF D2 D2 :|
AFFA  B2 Bd | AFFA BE E2 | AFFA  BcdA | BdAF D2 D2 :|
